!!!COM: Charles Gounod
!!!CNT: Francais
!!!TXO: Francais
!!!OTL: La Chanson du Pe/cheur
!!!LYR: The/ophile Gautier
!!!ENC: Jacob Pegg
!!!YOR: Romantic French Song 1830-1870 -David Tunley, ed.,
!!!YOR: New York: Garland Publishing, Inc., 1995, Vol. 5
!!!ODT: 1841/
!!NB: Vocal melody and text only encoded.
!!NB: First instance of melodic material only encoded.
**kern	**silbe
*clef G2	*
*k[b-e-a-]	*
*M3/4	*
*MM[moderato]	*
!!created: 5/28/03 0:02
!!proofed and posted: 5/28/03 0:02
!!edit time: 27 min.
=10	=10
{2g	{Ma
8g	bel-
8g	-le a-
=11	=11
2f	-mie
4cc	est
=12	=12
2.cc	mor-
=13	=13
4c}	-te,}
4r	.
4r	.
=14	=14
{2e-	{Je
8e-	pleu-
8f	-re-
=15	=15
[2g	-rai
8g]	|
8g	tou-
=16	=16
[2.g	-jours!
=17	=17
4g]}	|}
4r	.
4r	.
=18	=18
{[2cc	{Sous
8cc]	|
8cc	la
=19	=19
2dd	tom-
8dd	-be, el-
8dd	-le em-
=20	=20
2.gg	-por-
=21	=21
4b-}	-te}
4r	.
8r	.
{8ee-	{Mon
=22	=22
[2ee-	a^-
8ee-]	-me
8dd	et
=23	=23
[2ff	mes
(16ff]	|
16ee-)	|
(16dd	a-
16ee-)	|
=24	=24
[2.ff	-mours!
=25	=25
4ff]}	|}
4r	.
4r	.
=26	=26
2.r	.
=27	=27
{8ee-	{Dans
8ee-	le
(8cc	Ciel,
8dd)	|
8ee-	sans
8aa-	m'at-
=28	=28
2gg	-ten-
8ee-}	-dre,}
8r	.
=29	=29
{4ee-	{El-
8cc	-le
8dd	s'en
8ee-	re-
8aa-	-tour-
=30	=30
2.gg}	-na;}
=31	=31
{4gg	{L'an-
8.dd	-ge
16dd	qui
8.een	l'em-
16een	-me-
=32	=32
[2dd	-na
8dd]}	|}
8r	.
=33	=33
{4gg	{Ne
8dd	vou-
8dd	-lut
8.ee-	pas
16ee-	me
=34	=34
2dd	pren-
8dd}	-dre;}
8r	.
=35	=35
{8.ee-	{Que
16dd	mon
4cc	sort
8.ee-	est
16ff	a-
=36	=36
[2.gg	-mer!
=37	=37
2gg_	|
8gg]}	|}
8r	.
=38	=38
{2dd-	{Ah!
8ee-	sans
8ff	a-
=39	=39
2a-	-mour,
8cc	s'en
8dd-	al-
=40	=40
2f	-ler,
8g	s'en
8a-	al-
=41	=41
2.dn	-ler
=42	=42
[2.g	sur
=43	=43
2g_	|
8g]	|
8g	la
=44	=44
[2.g	mer!
=45	=45
4g]}	|}
4r	.
4r	.
!!mm.46-51 piano only simply
!!remaining strophes are identical, with this variation:
=52	=52
4r	.
4r	.
8r	.
{8g	{La
=53	=53
2.g	blan-
=54	=54
2f	-che
8.f	cre/-
16f	-a-
=55	=55
2.cc	-tu-
=56	=56
4c}	-re}
4r	.
4r	.
=57	=57
{8.e-	{Est
16f	cou-
[2g	-che/e
=58	=58
2g]	|
8.g	au
16g	cer-
=59	=59
[2.g	-cueil.
=60	=60
4g]}	|}
4r	.
4r	.
*-	*-
